X:1
T:I Belong to Glasgow
C:Traditional
M:3/4
L:1/4
Q:1/4=120
K:D
a|D2E|F2G|Ad2|d3|d2e|d2A|F3|EDF|DDE|FFG|A2B|c2d|e2f|g2f|e3|d2A|]
